formas-de-pagamento/elo.svg

<svg enable-background="new 0 0 60 40" height="40" viewBox="0 0 60 40" width="60" xmlns="http://www.w3.org/2000/svg"><switch><foreignObject height="1" requiredExtensions="http://ns.adobe.com/AdobeIllustrator/10.0/" width="1"/><g><path d="m60 35c0 2.75-2.25 5-5 5h-50c-2.75 0-5-2.25-5-5v-30c0-2.75 2.25-5 5-5h50c2.75 0 5 2.25 5 5z"/><path d="m55 0h-50c-2.75 0-5 2.25-5 5v30c0 2.75 2.25 5 5 5h50c2.75 0 5-2.25 5-5v-30c0-2.75-2.25-5-5-5zm0 1c2.206 0 4 1.794 4 4v30c0 2.206-1.794 4-4 4h-50c-2.206 0-4-1.794-4-4v-30c0-2.206 1.794-4 4-4z" fill="#fff" opacity=".25"/><path d="m49.31 21.627c-.26 1.273-1.386 2.231-2.735 2.231-.301 0-.6-.048-.886-.144l-.62 1.852c.485.162.994.245 1.506.244 2.293 0 4.207-1.628 4.649-3.792zm-5.878 2.994 1.293-1.463c-.578-.511-.941-1.258-.941-2.091 0-.832.364-1.578.941-2.089l-1.294-1.463c-.981.869-1.6 2.139-1.6 3.552-.001 1.414.619 2.685 1.601 3.554zm2.258-6.201c.278-.093.575-.143.885-.143 1.35 0 2.477.959 2.735 2.234l1.914-.39c-.439-2.166-2.354-3.796-4.649-3.796-.511-.001-1.019.082-1.503.243-.001-.001.618 1.852.618 1.852zm-5.729-4.232v9.158l1.589.659-.752 1.806-1.572-.653c-.353-.153-.592-.387-.774-.65-.174-.27-.304-.639-.304-1.136v-9.183zm-7.24 2.138c-2.617-.04-4.773 2.051-4.813 4.669-.015.982.268 1.899.767 2.662l8.59-3.672c-.483-2.069-2.323-3.625-4.544-3.659zm-2.846 5.036c-.012-.11-.02-.222-.017-.336.025-1.543 1.294-2.774 2.836-2.749.839.011 1.584.396 2.088.99zm4.726 1.7c-.518.504-1.22.81-1.995.799-.531-.009-1.024-.168-1.442-.433l-1.038 1.654c.734.465 1.583.717 2.452.729 1.315.02 2.514-.497 3.385-1.35z" fill="#fff"/><path d="m21.028 20.918c-.425 2.086-2.269 3.655-4.48 3.655-.493 0-.983-.079-1.451-.235l-1.016 3.035c.795.266 1.628.401 2.467.4 3.758 0 6.893-2.667 7.615-6.212z" fill="#ed412f"/><path d="m11.398 25.821 2.12-2.397c-.946-.838-1.543-2.061-1.543-3.425 0-1.363.597-2.586 1.543-3.423l-2.121-2.396c-1.607 1.424-2.62 3.503-2.62 5.82-.001 2.317 1.013 4.397 2.621 5.821" fill="#1aa5df"/><path d="m15.097 15.662c.467-.156.957-.235 1.45-.235 2.213 0 4.058 1.572 4.482 3.659l3.135-.639c-.719-3.548-3.856-6.219-7.617-6.219-.837-.001-1.669.134-2.464.399z" fill="#ffca32"/></g></switch></svg>

<?xml version="1.0" encoding="UTF-8"?>
<svg width="60px" height="40px" viewBox="0 0 60 40" version="1.1" xmlns="http://www.w3.org/2000/svg" xmlns:xlink="http://www.w3.org/1999/xlink">
    <!-- Generator: Sketch 52.4 (67378) - http://www.bohemiancoding.com/sketch -->
    <title>Artboard</title>
    <desc>Created with Sketch.</desc>
    <g id="Artboard" stroke="none" stroke-width="1" fill="none" fill-rule="evenodd">
        <g id="elo">
            <path d="M60,35 C60,37.75 57.75,40 55,40 L5,40 C2.25,40 0,37.75 0,35 L0,5 C0,2.25 2.25,0 5,0 L55,0 C57.75,0 60,2.25 60,5 L60,35 Z" id="Path" fill="#000000"></path>
            <path d="M49.31,21.627 C49.05,22.9 47.924,23.858 46.575,23.858 C46.274,23.858 45.975,23.81 45.689,23.714 L45.069,25.566 C45.554,25.728 46.063,25.811 46.575,25.81 C48.868,25.81 50.782,24.182 51.224,22.018 L49.31,21.627 Z M43.432,24.621 L44.725,23.158 C44.147,22.647 43.784,21.9 43.784,21.067 C43.784,20.235 44.148,19.489 44.725,18.978 L43.431,17.515 C42.45,18.384 41.831,19.654 41.831,21.067 C41.83,22.481 42.45,23.752 43.432,24.621 Z M45.69,18.42 C45.968,18.327 46.265,18.277 46.575,18.277 C47.925,18.277 49.052,19.236 49.31,20.511 L51.224,20.121 C50.785,17.955 48.87,16.325 46.575,16.325 C46.064,16.324 45.556,16.407 45.072,16.568 C45.071,16.567 45.69,18.42 45.69,18.42 Z M39.961,14.188 L39.961,23.346 L41.55,24.005 L40.798,25.811 L39.226,25.158 C38.873,25.005 38.634,24.771 38.452,24.508 C38.278,24.238 38.148,23.869 38.148,23.372 L38.148,14.189 L39.961,14.188 Z M32.721,16.326 C30.104,16.286 27.948,18.377 27.908,20.995 C27.893,21.977 28.176,22.894 28.675,23.657 L37.265,19.985 C36.782,17.916 34.942,16.36 32.721,16.326 Z M29.875,21.362 C29.863,21.252 29.855,21.14 29.858,21.026 C29.883,19.483 31.152,18.252 32.694,18.277 C33.533,18.288 34.278,18.673 34.782,19.267 L29.875,21.362 Z M34.601,23.062 C34.083,23.566 33.381,23.872 32.606,23.861 C32.075,23.852 31.582,23.693 31.164,23.428 L30.126,25.082 C30.86,25.547 31.709,25.799 32.578,25.811 C33.893,25.831 35.092,25.314 35.963,24.461 L34.601,23.062 Z" id="Shape" fill="#FFFFFF" fill-rule="nonzero"></path>
            <path d="M21.028,20.918 C20.603,23.004 18.759,24.573 16.548,24.573 C16.055,24.573 15.565,24.494 15.097,24.338 L14.081,27.373 C14.876,27.639 15.709,27.774 16.548,27.773 C20.306,27.773 23.441,25.106 24.163,21.561 L21.028,20.918 Z" id="Path" fill="#ED412F"></path>
            <path d="M11.398,25.821 L13.518,23.424 C12.572,22.586 11.975,21.363 11.975,19.999 C11.975,18.636 12.572,17.413 13.518,16.576 L11.397,14.18 C9.79,15.604 8.777,17.683 8.777,20 C8.776,22.317 9.79,24.397 11.398,25.821" id="Path" fill="#1AA5DF"></path>
            <path d="M15.097,15.662 C15.564,15.506 16.054,15.427 16.547,15.427 C18.76,15.427 20.605,16.999 21.029,19.086 L24.164,18.447 C23.445,14.899 20.308,12.228 16.547,12.228 C15.71,12.227 14.878,12.362 14.083,12.627 L15.097,15.662 Z" id="Path" fill="#FFCA32"></path>
        </g>
    </g>
</svg>
